X: 4678
T: Boyne Hunt, The
R: reel
M: 4/4
K: Dmajor
BAFA DAFA|DAFA BEE2|BAFA DAFA|ABde fddB:|
faa2 agaf|g3a bgeg|faa2 agaf|efde fdd2|
faa2 agaf|g3a bgeg|f2fe dedB|ABde fddc||
dfAd BdAd|dfAd feec|dfAd BdAF|ABde fddc|
dfAd BdAd|dfAd feef|gefd ecdB|ABde fded||

